build/img/logo-white-desktop.svg

<svg width="170" height="80" viewBox="0 0 170 80" fill="none" xmlns="http://www.w3.org/2000/svg">
<path fill-rule="evenodd" clip-rule="evenodd" d="M0 29.5943H170V0.751953H0V29.5943ZM16.0334 24.0377C17.5249 25.2693 19.3892 25.6702 21.2535 25.6702C21.7985 25.6702 22.3722 25.6416 22.8884 25.5843L24.1791 25.3265C24.5233 25.2406 24.8962 25.1261 25.2404 25.0115C25.3981 24.9542 25.5487 24.8969 25.6993 24.8397C25.8499 24.7824 26.0005 24.7251 26.1582 24.6678L26.3303 24.6105V21.4599H25.6419L25.5846 21.5172C25.4842 21.5888 25.3766 21.6604 25.2691 21.732C25.1615 21.8036 25.054 21.8752 24.9536 21.9468C24.6954 22.1187 24.4373 22.2619 24.1505 22.4051C23.8698 22.558 23.5437 22.6655 23.2328 22.768C23.1943 22.7808 23.1559 22.7934 23.1179 22.8061C22.7163 22.9206 22.2861 22.9779 21.8559 22.9779C21.4256 22.9779 20.9954 22.9206 20.5939 22.7774C20.1636 22.6629 19.7908 22.491 19.4466 22.2332C19.0737 21.9468 18.8156 21.5745 18.6148 21.1448C18.3566 20.6579 18.2706 20.0565 18.2706 19.4836C18.2706 18.9394 18.3566 18.3666 18.5861 17.8797C18.7869 17.4501 19.045 17.0777 19.3892 16.7913C19.7334 16.5335 20.1063 16.3044 20.5078 16.1612C20.938 16.0466 21.397 15.9893 21.8272 15.9893C22.2287 15.9893 22.6303 16.0466 23.0032 16.1612C23.376 16.2471 23.7202 16.3903 24.0357 16.5335C24.3512 16.6767 24.6381 16.8486 24.8962 17.0204C25.1257 17.1636 25.3264 17.3068 25.5272 17.4501L25.6133 17.5073H26.3303V14.3281L26.1582 14.2708C25.8714 14.1276 25.5272 14.013 25.2404 13.9271C24.8675 13.7839 24.5233 13.6693 24.1505 13.5834C23.7202 13.4975 23.2613 13.4116 22.8311 13.3829C22.3148 13.3256 21.7985 13.297 21.2822 13.297C19.3892 13.297 17.4962 13.7266 16.0334 14.9582C14.6566 16.1612 14.083 17.7078 14.083 19.4836C14.083 21.2881 14.6279 22.892 16.0334 24.0377ZM132.311 16.3617H135.18V25.4411H139.367V13.5548H128.411L128.382 13.8698C128.353 14.5859 128.325 15.3019 128.325 16.018C128.31 16.2901 128.296 16.5693 128.282 16.8486C128.267 17.1278 128.253 17.4071 128.239 17.6792C128.212 18.2326 128.161 18.7618 128.109 19.3114L128.095 19.455C128.038 19.8846 127.98 20.3142 127.866 20.7152C127.751 21.2594 127.521 21.8036 127.063 22.1187C126.948 22.2046 126.776 22.2619 126.661 22.2619C126.638 22.2651 126.616 22.2683 126.594 22.2715C126.421 22.2966 126.266 22.3192 126.087 22.3192H125.887H125.714H125.227V25.4125L125.514 25.4411C125.628 25.4554 125.743 25.4626 125.858 25.4698C125.973 25.4769 126.087 25.4841 126.202 25.4984C126.374 25.4984 126.539 25.5056 126.704 25.5127C126.869 25.5199 127.034 25.527 127.206 25.527C127.694 25.527 128.152 25.4411 128.64 25.2979C129.07 25.1547 129.501 24.9542 129.873 24.6678C130.132 24.4673 130.361 24.2095 130.562 23.9804C130.849 23.608 131.078 23.1784 131.279 22.7488C131.524 22.2048 131.666 21.6091 131.802 21.0353L131.824 20.9444C132.025 20.0851 132.111 19.2258 132.168 18.3666C132.197 17.9942 132.225 17.6219 132.254 17.2782C132.254 16.9631 132.283 16.6481 132.311 16.3617ZM113.926 23.5221H118.429L119.118 25.4411H123.879L118.63 13.5548H113.84L108.591 25.4411H113.238L113.926 23.5221ZM116.192 17.1923L117.425 20.6866H114.93L116.192 17.1923ZM145.964 23.5221H150.467L151.156 25.4411H155.917L150.697 13.5548H145.878L140.629 25.4411H145.276L145.964 23.5221ZM148.23 17.1923L149.463 20.6866H146.968L148.23 17.1923ZM40.8436 24.0377C42.1916 22.8634 42.7653 21.2881 42.7653 19.4836C42.7653 17.7078 42.1916 16.1325 40.8436 14.9582C39.3808 13.7266 37.5164 13.3256 35.6521 13.3256C33.7877 13.3256 31.8947 13.7266 30.4606 14.9582C29.1125 16.1612 28.5389 17.7365 28.5389 19.4836C28.5389 21.2594 29.1125 22.8347 30.4606 24.009C31.8947 25.2693 33.7877 25.6702 35.6521 25.6702C37.5164 25.6702 39.3808 25.2693 40.8436 24.0377ZM33.0707 17.8797C33.2141 17.5073 33.4148 17.135 33.7017 16.8486C33.9598 16.5908 34.2466 16.3617 34.5908 16.2471C34.935 16.1325 35.3079 16.0752 35.6521 16.0752C36.0249 16.0752 36.3978 16.1612 36.742 16.2757C37.0862 16.3903 37.373 16.5908 37.6311 16.8486C37.918 17.135 38.0901 17.5073 38.2335 17.8797C38.4342 18.3952 38.4916 18.9681 38.4916 19.4836C38.4916 19.9992 38.4342 20.6007 38.2622 21.0876C38.1187 21.4599 37.918 21.8322 37.6311 22.1187C37.373 22.3764 37.0862 22.5769 36.742 22.6915C36.3978 22.8347 36.0249 22.892 35.6521 22.892C35.2792 22.892 34.935 22.8347 34.5908 22.7201C34.2466 22.6056 33.9311 22.4051 33.673 22.1473C33.3862 21.8322 33.1854 21.4885 33.042 21.0876C32.8699 20.6007 32.8125 20.0278 32.8125 19.4836C32.8125 18.9681 32.8699 18.3952 33.0707 17.8797ZM51.1692 16.3617H54.0661V25.4411H58.2537V13.5548H47.2684V13.8698L47.1824 16.018C47.1824 16.5622 47.1537 17.135 47.125 17.6792C47.0963 18.2807 47.0389 18.8535 46.9529 19.455C46.9242 19.8846 46.8382 20.3142 46.7521 20.7152C46.6374 21.2594 46.3792 21.8036 45.949 22.1187C45.8343 22.2046 45.6622 22.2619 45.5188 22.2619C45.3467 22.2905 45.1459 22.3192 44.9738 22.3192H44.773H44.6009H44.5723H44.1133V25.4125L44.4002 25.4411C44.5149 25.4554 44.6296 25.4626 44.7444 25.4698C44.8591 25.4769 44.9738 25.4841 45.0885 25.4984C45.2463 25.4984 45.4112 25.5056 45.5761 25.5127C45.7411 25.5199 45.906 25.527 46.0637 25.527C46.5513 25.527 47.0389 25.4411 47.4979 25.2979C47.9568 25.1547 48.387 24.9542 48.7312 24.6678C48.9253 24.517 49.1032 24.3339 49.277 24.1549C49.3344 24.0958 49.3913 24.0372 49.4482 23.9804C49.7351 23.608 49.9645 23.1784 50.1366 22.7488C50.3948 22.176 50.5669 21.5458 50.7103 20.9444C50.8824 20.0851 50.9971 19.2258 51.0545 18.3666C51.0831 17.9942 51.1118 17.6219 51.1118 17.2782C51.1405 16.9631 51.1692 16.6481 51.1692 16.3617ZM73.1972 24.0377C74.5453 22.8634 75.1189 21.2881 75.1189 19.4836C75.1189 17.7078 74.5453 16.1325 73.1972 14.9582C71.7344 13.7266 69.87 13.3256 68.0057 13.3256C66.1413 13.3256 64.2483 13.7266 62.8142 14.9582C61.4661 16.1612 60.8925 17.7365 60.8925 19.4836C60.8925 21.2594 61.4661 22.8347 62.8142 24.009C64.2483 25.2693 66.1413 25.6702 68.0057 25.6702C69.87 25.6702 71.7344 25.2693 73.1972 24.0377ZM65.4243 17.8797C65.5677 17.5073 65.7685 17.135 66.0553 16.8486C66.3134 16.5908 66.6003 16.3617 66.9445 16.2471C67.2886 16.1325 67.6615 16.0752 68.0057 16.0752C68.3786 16.0752 68.7228 16.1612 69.0956 16.2757C69.4398 16.3903 69.7266 16.5908 69.9848 16.8486C70.2716 17.135 70.4437 17.5073 70.5871 17.8797C70.7879 18.3952 70.8452 18.9681 70.8452 19.4836C70.8452 19.9992 70.7879 20.6007 70.6158 21.0876C70.4724 21.4599 70.2716 21.8322 69.9848 22.1187C69.7266 22.3764 69.4398 22.5769 69.0956 22.6915C68.7514 22.8347 68.3786 22.892 68.0057 22.892C67.6328 22.892 67.2886 22.8347 66.9445 22.7201C66.6003 22.6056 66.2848 22.4051 66.0266 22.1473C65.7398 21.8322 65.539 21.4885 65.3956 21.0876C65.2235 20.6007 65.1662 20.0278 65.1662 19.4836C65.1662 18.9681 65.2235 18.3952 65.4243 17.8797ZM86.2476 25.1261L88.2554 19.856V25.4411H92.4143V13.5548H87.7965L84.9283 20.572L82.0313 13.5548H77.4422V25.4411H81.4003V19.856L83.4081 25.1261H86.2476ZM100.044 17.7651V16.3617H106.727V13.5548H95.8849V25.4411H101.966C102.74 25.4411 103.572 25.3838 104.317 25.212C104.977 25.0688 105.608 24.811 106.182 24.4387C106.669 24.1236 107.071 23.694 107.358 23.2071C107.645 22.6915 107.788 22.1187 107.788 21.5172C107.788 20.9444 107.673 20.4002 107.415 19.8846C107.157 19.3404 106.755 18.9394 106.239 18.6244C105.666 18.252 105.006 18.0229 104.317 17.9083C103.572 17.7938 102.797 17.7651 102.023 17.7651H100.044ZM103.228 20.8584C103.314 20.9444 103.4 21.0589 103.428 21.1735C103.486 21.3167 103.514 21.4599 103.514 21.6031C103.514 21.9468 103.342 22.2046 103.027 22.3764C102.597 22.6342 101.994 22.6915 101.507 22.6915H100.044V20.4861H101.507C101.851 20.4861 102.281 20.5147 102.654 20.6007C102.826 20.6579 103.055 20.7439 103.228 20.8584Z" fill="white"/>
<path fill-rule="evenodd" clip-rule="evenodd" d="M0 79.7176H170V32.4299H0V79.7176ZM82.2322 63.4488C85.3012 60.6419 86.5059 56.9471 86.5059 52.8513C86.5059 48.7842 85.3012 45.0608 82.2322 42.2825C79.0485 39.3897 74.8895 38.4445 70.6732 38.4445C66.457 38.4445 62.2693 39.3897 59.0856 42.3112C56.0453 45.0894 54.8406 48.7842 54.8406 52.8513C54.8406 56.9185 56.074 60.5846 59.0856 63.3915C62.2693 66.313 66.4283 67.2868 70.6732 67.2868C74.8895 67.2868 79.0485 66.313 82.2322 63.4488ZM34.2467 66.5135L39.094 53.7679V67.2582H49.1615V38.4445H38.0041L31.0343 54.4553L24.0358 38.4445H12.9071V67.2582H22.5157V53.7679L27.363 66.5135H34.2467ZM141.404 45.5763H147.657V66.7426H157.064V38.9887H132.627L132.598 39.7334C132.512 41.4233 132.455 43.0845 132.426 44.7744C132.399 46.01 132.345 47.2194 132.29 48.4528L132.283 48.6124C132.197 49.9872 132.082 51.3906 131.91 52.7368C131.795 53.7392 131.652 54.7417 131.451 55.7442C131.164 56.9471 130.677 58.1787 129.673 58.9807C129.443 59.1525 129.07 59.2385 128.784 59.2958C128.712 59.3067 128.639 59.3188 128.563 59.331C128.247 59.3828 127.904 59.439 127.579 59.439C127.507 59.439 127.436 59.4318 127.364 59.4246C127.292 59.4175 127.22 59.4103 127.149 59.4103C127.077 59.4103 127.005 59.4032 126.934 59.396C126.862 59.3888 126.79 59.3817 126.718 59.3817H126.69H125.571V66.6567L126.288 66.7426C126.609 66.7804 126.956 66.7932 127.294 66.8058C127.469 66.8123 127.642 66.8188 127.808 66.8286C128.525 66.8858 129.271 66.9145 130.017 66.9145C131.107 66.9145 132.168 66.714 133.229 66.3989C134.233 66.0552 135.18 65.597 135.983 64.9096C136.557 64.4513 137.073 63.8498 137.532 63.277C138.191 62.4177 138.708 61.4153 139.109 60.4414C139.683 59.1239 140.056 57.6345 140.343 56.2311C140.773 54.2548 140.974 52.2212 141.117 50.2163C141.146 49.785 141.175 49.3609 141.203 48.9367C141.232 48.5159 141.26 48.0951 141.289 47.6672L141.292 47.5869C141.32 46.9242 141.349 46.237 141.404 45.5763ZM105.035 45.5763H111.316V66.7426H120.724V38.9887H96.2579L96.2292 39.7334L96.2238 39.8932C96.1682 41.5281 96.1135 43.1378 96.0858 44.7744C96.0571 46.0632 95.9997 47.3235 95.9137 48.6124C95.8276 49.9872 95.7129 51.3906 95.5695 52.7368C95.4548 53.7392 95.3113 54.7417 95.0819 55.7442C94.8237 56.9471 94.3075 58.1787 93.3036 58.9807C93.0741 59.1525 92.7013 59.2385 92.4431 59.2958C92.3472 59.3094 92.2496 59.3248 92.1516 59.3401C91.8393 59.3892 91.5223 59.439 91.2385 59.439C91.1668 59.439 91.0879 59.4318 91.009 59.4246C90.9301 59.4175 90.8512 59.4103 90.7795 59.4103C90.7078 59.4103 90.6433 59.4032 90.5788 59.396C90.5142 59.3888 90.4497 59.3817 90.378 59.3817H90.3493H89.2307V66.6567L89.9191 66.7426C90.2403 66.7804 90.5864 66.7932 90.9246 66.8058C91.0998 66.8123 91.2728 66.8188 91.4392 66.8286C92.185 66.8858 92.9307 66.9145 93.6478 66.9145C94.7377 66.9145 95.8276 66.714 96.8602 66.3989C97.8641 66.0552 98.8106 65.597 99.6424 64.9096C100.216 64.4513 100.732 63.8498 101.191 63.277C101.822 62.4177 102.339 61.4153 102.769 60.4414C103.342 59.1239 103.715 57.6345 104.002 56.2311C104.404 54.2548 104.633 52.2212 104.777 50.2163L104.787 50.0647C104.841 49.259 104.893 48.4758 104.92 47.6672C104.975 47.006 105.004 46.3184 105.031 45.6552L105.035 45.5763ZM65.0228 49.0993C65.3097 48.24 65.7686 47.3521 66.3996 46.6934C66.9445 46.1205 67.6042 45.605 68.35 45.3472C69.0957 45.0608 69.8988 44.9462 70.7019 44.9462C71.505 44.9462 72.2795 45.0894 73.0252 45.3758C73.7996 45.6623 74.4306 46.1205 74.9756 46.6934C75.6353 47.3808 76.0368 48.2687 76.3523 49.1279C76.7539 50.3022 76.8973 51.6198 76.8973 52.8513C76.8973 54.0257 76.8113 55.4291 76.381 56.5748C76.0655 57.434 75.6353 58.2647 75.0043 58.9807C74.4593 59.5822 73.8283 60.0118 73.0826 60.2982C72.3081 60.6133 71.505 60.7565 70.7019 60.7565C69.8701 60.7565 69.0957 60.6133 68.3213 60.3269C67.5756 60.0691 66.9159 59.5822 66.3709 58.9807C65.7399 58.2933 65.281 57.4627 64.9942 56.6034C64.5639 55.4291 64.4779 54.0829 64.4779 52.8513C64.4779 51.6198 64.5926 50.3022 65.0228 49.0993Z" fill="white"/>
</svg>

<svg width="170" height="80" fill="none" xmlns="http://www.w3.org/2000/svg"><path fill-rule="evenodd" clip-rule="evenodd" d="M0 29.594h170V.752H0v28.842zm16.033-5.556c1.492 1.231 3.356 1.632 5.22 1.632.546 0 1.12-.028 1.635-.086l1.291-.258c.344-.085.717-.2 1.061-.314.158-.058.309-.115.46-.172.15-.058.3-.115.458-.172l.172-.058v-3.15h-.688l-.057.057c-.1.072-.208.143-.316.215-.107.072-.215.143-.315.215a7.295 7.295 0 01-.803.458c-.281.153-.607.26-.918.363l-.115.038a4.631 4.631 0 01-1.262.172c-.43 0-.86-.057-1.262-.2a3.262 3.262 0 01-1.147-.545c-.373-.286-.631-.659-.832-1.088-.258-.487-.344-1.088-.344-1.661 0-.545.086-1.117.315-1.604.2-.43.459-.802.803-1.089a4.296 4.296 0 011.119-.63 5.24 5.24 0 011.32-.172c.4 0 .802.058 1.175.172.373.086.717.23 1.033.372.315.144.602.316.86.487.23.144.43.287.631.43l.086.057h.717v-3.179l-.172-.057a5.975 5.975 0 00-.918-.344 7.98 7.98 0 00-1.09-.344c-.43-.085-.889-.171-1.319-.2a14.031 14.031 0 00-1.549-.086c-1.893 0-3.786.43-5.249 1.661-1.376 1.203-1.95 2.75-1.95 4.526 0 1.804.545 3.408 1.95 4.554zm116.278-7.676h2.869v9.08h4.187V13.554h-10.956l-.029.315a53.105 53.105 0 00-.057 2.148l-.043.83-.043.831c-.027.554-.078 1.083-.13 1.632l-.014.144c-.057.43-.115.86-.229 1.26-.115.544-.345 1.089-.803 1.404a.763.763 0 01-.402.143l-.067.01a3.4 3.4 0 01-.507.047h-.86v3.094l.287.028c.114.014.229.022.344.029.115.007.229.014.344.028.172 0 .337.008.502.015.165.007.33.014.502.014a4.97 4.97 0 001.434-.23c.43-.142.861-.343 1.233-.63.259-.2.488-.458.689-.687.287-.372.516-.802.717-1.231.245-.544.387-1.14.523-1.714l.022-.09c.201-.86.287-1.72.344-2.578.029-.373.057-.745.086-1.089 0-.315.029-.63.057-.916zm-18.385 7.16h4.503l.689 1.92h4.761l-5.249-11.887h-4.79l-5.249 11.886h4.647l.688-1.919zm2.266-6.33l1.233 3.495h-2.495l1.262-3.495zm29.772 6.33h4.503l.689 1.92h4.761l-5.22-11.887h-4.819l-5.249 11.886h4.647l.688-1.919zm2.266-6.33l1.233 3.495h-2.495l1.262-3.495zM40.844 24.038c1.348-1.175 1.921-2.75 1.921-4.554 0-1.776-.573-3.352-1.921-4.526-1.463-1.231-3.328-1.632-5.192-1.632-1.864 0-3.757.4-5.191 1.632-1.348 1.203-1.922 2.778-1.922 4.526 0 1.775.573 3.35 1.922 4.525 1.434 1.26 3.327 1.661 5.191 1.661 1.864 0 3.729-.4 5.192-1.632zM33.07 17.88c.143-.373.344-.745.63-1.031.259-.258.546-.487.89-.602a3.427 3.427 0 011.061-.172c.373 0 .746.086 1.09.2.344.115.631.316.89.574.286.286.458.658.602 1.03.2.516.258 1.09.258 1.605 0 .515-.058 1.117-.23 1.604-.143.372-.344.744-.63 1.03a2.265 2.265 0 01-.89.574c-.344.143-.717.2-1.09.2-.373 0-.717-.057-1.061-.172a2.365 2.365 0 01-.918-.573 3.066 3.066 0 01-.631-1.06c-.172-.486-.23-1.06-.23-1.603 0-.516.058-1.089.259-1.604zm18.098-1.518h2.897v9.08h4.188V13.554H47.268v.315l-.086 2.148c0 .544-.028 1.117-.057 1.661a18.614 18.614 0 01-.172 1.776 9.05 9.05 0 01-.2 1.26c-.116.544-.374 1.089-.804 1.404a.774.774 0 01-.43.143 3.525 3.525 0 01-.545.057h-.861v3.094l.287.028c.115.014.23.022.344.029.115.007.23.014.345.028.157 0 .322.008.487.015.165.007.33.014.488.014.487 0 .975-.086 1.434-.23.459-.142.889-.343 1.233-.63.194-.15.372-.333.546-.512.057-.06.114-.118.171-.175.287-.372.517-.802.689-1.231.258-.573.43-1.203.573-1.805.172-.859.287-1.718.344-2.577.03-.373.058-.745.058-1.089.029-.315.057-.63.057-.916zm22.028 7.676c1.348-1.175 1.922-2.75 1.922-4.554 0-1.776-.574-3.352-1.922-4.526-1.463-1.231-3.327-1.632-5.191-1.632-1.865 0-3.758.4-5.192 1.632-1.348 1.203-1.922 2.778-1.922 4.526 0 1.775.574 3.35 1.922 4.525 1.434 1.26 3.327 1.661 5.192 1.661 1.864 0 3.728-.4 5.191-1.632zm-7.773-6.158c.144-.373.344-.745.631-1.031.258-.258.545-.487.89-.602a3.426 3.426 0 011.06-.172c.374 0 .718.086 1.09.2.345.115.632.316.89.574.287.286.459.658.602 1.03.2.516.258 1.09.258 1.605 0 .515-.057 1.117-.23 1.604-.143.372-.343.744-.63 1.03a2.266 2.266 0 01-.89.574 2.83 2.83 0 01-1.09.2 3.28 3.28 0 01-1.06-.172 2.367 2.367 0 01-.918-.573 3.066 3.066 0 01-.631-1.06c-.172-.486-.23-1.06-.23-1.603 0-.516.058-1.089.258-1.604zm20.824 7.246l2.007-5.27v5.585h4.16V13.555h-4.619l-2.868 7.017-2.897-7.017h-4.589V25.44H81.4v-5.585l2.008 5.27h2.84zm13.796-7.36v-1.404h6.683v-2.807H95.885V25.44h6.081c.774 0 1.606-.057 2.351-.229a5.601 5.601 0 001.865-.773 3.72 3.72 0 001.176-1.232 3.44 3.44 0 00.43-1.69c0-.573-.115-1.117-.373-1.632-.258-.545-.66-.946-1.176-1.26-.573-.373-1.233-.602-1.922-.717-.745-.114-1.52-.143-2.294-.143h-1.979zm3.184 3.092c.086.086.172.2.2.316.058.143.086.286.086.43 0 .343-.172.6-.487.772-.43.258-1.033.316-1.52.316h-1.463v-2.206h1.463c.344 0 .774.029 1.147.115.172.057.401.143.574.257zM0 79.718h170V32.43H0v47.288zm82.232-16.27c3.07-2.806 4.274-6.5 4.274-10.597 0-4.067-1.205-7.79-4.274-10.569-3.183-2.892-7.343-3.837-11.559-3.837-4.216 0-8.404.945-11.587 3.866-3.04 2.778-4.245 6.473-4.245 10.54 0 4.068 1.233 7.734 4.245 10.54 3.183 2.922 7.342 3.896 11.587 3.896 4.216 0 8.376-.974 11.56-3.838zm-47.985 3.065l4.847-12.745v13.49h10.067V38.445H38.004l-6.97 16.01-6.998-16.01H12.907v28.813h9.609v-13.49l4.847 12.745h6.884zm107.157-20.937h6.253v21.167h9.407V38.989h-24.437l-.029.744c-.086 1.69-.143 3.352-.172 5.041-.027 1.236-.081 2.445-.136 3.679l-.007.16a64.81 64.81 0 01-.373 4.124 36.31 36.31 0 01-.459 3.007c-.287 1.203-.774 2.435-1.778 3.237-.23.172-.603.258-.889.315-.072.01-.145.023-.221.035-.316.052-.659.108-.984.108-.072 0-.143-.007-.215-.014a1.959 1.959 0 00-.215-.015c-.072 0-.144-.007-.215-.014a2.176 2.176 0 00-.216-.014h-1.147v7.275l.717.086c.321.037.668.05 1.006.063.175.006.348.013.514.023.717.057 1.463.086 2.209.086 1.09 0 2.151-.201 3.212-.516 1.004-.344 1.951-.802 2.754-1.49.574-.458 1.09-1.06 1.549-1.632.659-.86 1.176-1.862 1.577-2.836.574-1.317.947-2.806 1.234-4.21.43-1.976.631-4.01.774-6.015l.086-1.28.086-1.269.003-.08c.028-.663.057-1.35.112-2.01zm-36.369 0h6.281v21.167h9.408V38.989H96.258l-.029.744-.005.16a283.68 283.68 0 00-.138 4.881 85.967 85.967 0 01-.172 3.838 96.003 96.003 0 01-.344 4.125 27.51 27.51 0 01-.488 3.007c-.258 1.203-.774 2.435-1.778 3.237-.23.172-.603.258-.86.315-.097.013-.194.029-.292.044-.313.05-.63.099-.913.099-.072 0-.151-.007-.23-.014a2.352 2.352 0 00-.23-.015c-.071 0-.136-.007-.2-.014a1.758 1.758 0 00-.201-.014h-1.147v7.275l.688.086c.321.037.667.05 1.006.063.175.006.348.013.514.023.746.057 1.492.086 2.209.086 1.09 0 2.18-.201 3.212-.516 1.004-.344 1.95-.802 2.782-1.49.574-.458 1.09-1.06 1.549-1.632.631-.86 1.148-1.862 1.578-2.836.573-1.317.946-2.806 1.233-4.21.402-1.976.631-4.01.775-6.015l.01-.151c.054-.806.106-1.59.133-2.398.055-.661.084-1.349.111-2.012l.004-.079zM65.023 49.1c.287-.859.746-1.747 1.377-2.406.544-.572 1.204-1.088 1.95-1.346.746-.286 1.549-.4 2.352-.4.803 0 1.578.142 2.323.429.775.286 1.406.745 1.95 1.317.66.688 1.062 1.576 1.377 2.435.402 1.174.545 2.492.545 3.723 0 1.175-.086 2.578-.516 3.724-.316.859-.746 1.69-1.377 2.406a4.916 4.916 0 01-1.921 1.317 6.282 6.282 0 01-2.381.459 6.734 6.734 0 01-2.38-.43c-.746-.258-1.406-.745-1.951-1.346a6.623 6.623 0 01-1.377-2.378c-.43-1.174-.516-2.52-.516-3.752 0-1.231.115-2.549.545-3.752z" fill="#fff"/></svg>
